X: 22
T:New Copperplate, The
M:C|
L:1/8
R:Reel
K:G
G2dG BGdG|GBdc BAGB|A2eA cAeA|Aced cAFA|!
G2dc BcdB|GBdc BAGB|ABcd efge|1aged cAFA:|2aged ^cdef|!
|:g2gf gfef|gedc BGGd|eaa^g a=geg|aged ^cdef|!
gbaf g2ef|gedc BAGB|ABcd efge|1aged ^cdef:|2aged cAFA|]!
